static/img/svg/gift.svg

<svg xmlns="http://www.w3.org/2000/svg" width="24" height="24"><path d="M21 8h-2.352c.219-.456.352-.961.352-1.5C19 4.57 17.43 3 15.5 3c-1.689 0-2.803 1.434-3.5 2.882C11.303 4.434 10.19 3 8.5 3 6.57 3 5 4.57 5 6.5c0 .539.133 1.044.352 1.5H3a1 1 0 0 0-1 1v4a1 1 0 0 0 1 1h1v6a1 1 0 0 0 1 1h14a1 1 0 0 0 1-1v-6.001h1a1 1 0 0 0 1-1V9a1 1 0 0 0-1-1zM8.5 5c.888 0 1.714 1.526 2.198 3H8.5C7.673 8 7 7.327 7 6.5S7.673 5 8.5 5zM11 19H6v-5h5v5zm0-7H4v-2h7v2zm4.5-7c.827 0 1.5.673 1.5 1.5S16.327 8 15.5 8h-2.194c.451-1.368 1.251-3 2.194-3zM18 19h-5v-5h5v5zm2-7h-7v-2h7v2z"/></svg>

<?xml version="1.0" encoding="utf-8"?>
<!-- Generator: Adobe Illustrator 16.0.0, SVG Export Plug-In . SVG Version: 6.00 Build 0)  -->
<!DOCTYPE svg PUBLIC "-//W3C//DTD SVG 1.1//EN" "http://www.w3.org/Graphics/SVG/1.1/DTD/svg11.dtd">
<svg version="1.1" id="Layer_1" xmlns="http://www.w3.org/2000/svg" xmlns:xlink="http://www.w3.org/1999/xlink" x="0px" y="0px"
	 width="24px" height="24px" viewBox="0 0 24 24" enable-background="new 0 0 24 24" xml:space="preserve">
<g>
	<path d="M21,8h-2.352C18.867,7.544,19,7.039,19,6.5C19,4.57,17.43,3,15.5,3c-1.689,0-2.803,1.434-3.5,2.882
		C11.303,4.434,10.19,3,8.5,3C6.57,3,5,4.57,5,6.5C5,7.039,5.133,7.544,5.352,8H3C2.448,8,2,8.448,2,9V13c0,0.552,0.448,1,1,1h1V20
		c0,0.553,0.448,1,1,1h6h2h6c0.553,0,1-0.447,1-1v-6.001h1c0.553,0,1-0.447,1-1V9C22,8.448,21.553,8,21,8z M8.5,5
		c0.888,0,1.714,1.526,2.198,3H8.5v0C7.673,8,7,7.327,7,6.5S7.673,5,8.5,5z M11,19H6v-5h5V19z M11,12H4V10h7V12z M15.5,5
		C16.327,5,17,5.673,17,6.5S16.327,8,15.5,8v0h-2.194C13.757,6.632,14.557,5,15.5,5z M18,19h-5v-5h5V19z M20,12h-7V10h7V12z"/>
</g>
</svg>
